Numix-GalliumOS/24/status/dropboxstatus-x.svg

<?xml version="1.0" encoding="UTF-8" standalone="no"?>
<svg
   xmlns:dc="http://purl.org/dc/elements/1.1/"
   xmlns:cc="http://creativecommons.org/ns#"
   xmlns:rdf="http://www.w3.org/1999/02/22-rdf-syntax-ns#"
   xmlns:svg="http://www.w3.org/2000/svg"
   xmlns="http://www.w3.org/2000/svg"
   xmlns:sodipodi="http://sodipodi.sourceforge.net/DTD/sodipodi-0.dtd"
   xmlns:inkscape="http://www.inkscape.org/namespaces/inkscape"
   width="24"
   height="24"
   viewBox="0 0 24 24"
   id="svg3047"
   version="1.1"
   inkscape:version="0.91 r"
   sodipodi:docname="dropboxstatus-x.svg">
  <metadata
     id="metadata3059">
    <rdf:RDF>
      <cc:Work
         rdf:about="">
        <dc:format>image/svg+xml</dc:format>
        <dc:type
           rdf:resource="http://purl.org/dc/dcmitype/StillImage" />
      </cc:Work>
    </rdf:RDF>
  </metadata>
  <defs
     id="defs3057" />
  <sodipodi:namedview
     pagecolor="#ffffff"
     bordercolor="#666666"
     borderopacity="1"
     objecttolerance="10"
     gridtolerance="10"
     guidetolerance="10"
     inkscape:pageopacity="0"
     inkscape:pageshadow="2"
     inkscape:window-width="1366"
     inkscape:window-height="747"
     id="namedview3055"
     showgrid="false"
     inkscape:zoom="13.906434"
     inkscape:cx="-1.0104045"
     inkscape:cy="9.6193004"
     inkscape:window-x="0"
     inkscape:window-y="21"
     inkscape:window-maximized="1"
     inkscape:current-layer="svg3047" />
  <path
     style="fill:#ef555c;fill-opacity:1"
     inkscape:connector-curvature="0"
     id="path3053"
     d="M 7.4982094,4.5 3,8.0019536 7.4982094,11.002604 3,15.002279 12,21 21,15.002279 16.501791,11.002604 21,8.0019536 16.501791,4.5 12,8.0019536 Z M 12,9.0009763 c 0.555114,0 0.999204,0.4475917 0.999204,0.9990237 l 0,5.002279 c 0,0.555013 -0.44409,0.999023 -0.999204,0.999023 -0.555114,0 -0.999204,-0.44401 -0.999204,-0.999023 l 0,-5.002279 c 0,-0.551432 0.44409,-0.9990237 0.999204,-0.9990237 z m -0.250697,7.9993497 0.501394,0 c 0.415439,0 0.748507,0.336588 0.748507,0.751953 l 0,0.497721 c 0,0.418946 -0.333068,0.751954 -0.748507,0.751954 l -0.501394,0 c -0.415439,0 -0.748507,-0.333008 -0.748507,-0.751954 l 0,-0.497721 c 0,-0.415365 0.333068,-0.751953 0.748507,-0.751953 z" />
</svg>

<svg xmlns="http://www.w3.org/2000/svg" viewBox="0 0 24 24">
 <path d="m 7.498 4.5 -4.498 3.502 4.498 3 -4.498 4 9 5.998 9 -5.998 -4.498 -4 4.498 -3 -4.498 -3.502 -4.502 3.502 m 0 0.999 c 0.555 0 0.999 0.448 0.999 0.999 l 0 5 c 0 0.555 -0.444 0.999 -0.999 0.999 -0.555 0 -0.999 -0.444 -0.999 -0.999 l 0 -5 c 0 -0.551 0.444 -0.999 0.999 -0.999 z m -0.251 7.999 0.501 0 c 0.415 0 0.749 0.337 0.749 0.752 l 0 0.498 c 0 0.419 -0.333 0.752 -0.749 0.752 l -0.501 0 c -0.415 0 -0.749 -0.333 -0.749 -0.752 l 0 -0.498 c 0 -0.415 0.333 -0.752 0.749 -0.752 z" style="fill:#ef555c;fill-opacity:1"/>
</svg>
